X:301
T:Reel 301
M:4/4
K:Amaj
L:1/8
AF|EA,CA, A,A,CA,A,A,| (3A,A,A, E>A,  (3A,DF A2| (3CB,A, CA, A,C (3EFG |A>E (3CCE A2:||2DECE AGA2|BAcB AGAF|ECEF A2AF|ECEA c2BA| (3BAG  (3AGF ECED|EDCE A2AG| (3FGA EC D2CD|ECB,A, A,2A2|FDB,C D2F2|
